img/facebook-icon.svg

<svg xmlns="http://www.w3.org/2000/svg" xmlns:xlink="http://www.w3.org/1999/xlink" viewBox="0,0,256,256" width="24px" height="24px" fill-rule="nonzero"><g fill="#022442" fill-rule="nonzero" stroke="none" stroke-width="1" stroke-linecap="butt" stroke-linejoin="miter" stroke-miterlimit="10" stroke-dasharray="" stroke-dashoffset="0" font-family="none" font-weight="none" font-size="none" text-anchor="none" style="mix-blend-mode: normal"><g transform="scale(8.53333,8.53333)"><path d="M24,4h-18c-1.105,0 -2,0.895 -2,2v18c0,1.105 0.895,2 2,2h10v-9h-3v-3h3v-1.611c0,-3.05 1.486,-4.389 4.021,-4.389c1.214,0 1.856,0.09 2.16,0.131v2.869h-1.729c-1.076,0 -1.452,0.568 -1.452,1.718v1.282h3.154l-0.428,3h-2.726v9h5c1.105,0 2,-0.895 2,-2v-18c0,-1.105 -0.896,-2 -2,-2z"></path></g></g></svg>

<?xml version="1.0"?><svg xmlns="http://www.w3.org/2000/svg"  viewBox="0 0 30 30" width="24px" height="24px">    <path d="M24,4H6C4.895,4,4,4.895,4,6v18c0,1.105,0.895,2,2,2h10v-9h-3v-3h3v-1.611C16,9.339,17.486,8,20.021,8 c1.214,0,1.856,0.09,2.16,0.131V11h-1.729C19.376,11,19,11.568,19,12.718V14h3.154l-0.428,3H19v9h5c1.105,0,2-0.895,2-2V6 C26,4.895,25.104,4,24,4z"/></svg>
